!!!!SEGMENT: pl-wnifc--13846--153_anonim--piesni-polskie-i-ruskie-ludu-galicyjskiego-153-kukala-zazula-od-kalynoczki.krn
!!!cenid: 18xx:3375
!!!COM: Anonim
!!!COM-rismid: pe30004985
!!!CDT:
!!!CNT:
!!!GTL: Pieśni polskie i ruskie ludu galicyjskiego
!!!OTL: 153. Kukała zazula od kałynoczki
!!!PDT: 1833
!!!AGN:
!!!SMS-siglum: PL-Wnifc
!!!SMS-shelfmark: 13846
!!!SMS-shelfwork: 153 G
!!!NIFC-rismid: 1001039686
!!!URL-scan: http://repozytorium.nifc.pl/skany/pl-wnifc-nut--13846
!!!ONB-nifc:
!!!OMD: Alla Mazur
!!!key: A
**kern	**kern	**dynam	**kern	**text
*group2	*group2	*	*group1	*
*part2	*part2	*part2	*part1	*part1
*staff3	*staff2	*	*staff1	*staff1
*I"[Piano]	*I"[Piano]	*	*I"[Soprano]	*
*Ipiano	*Ipiano	*	*Isoprn	*
*ICklav	*ICklav	*	*ICvox	*
*IGacmp	*IGacmp	*	*IGsolo	*
*clefF4	*clefG2	*	*clefG2	*
*k[f#c#g#]	*k[f#c#g#]	*	*k[f#c#g#]	*
*D:	*D:	*	*D:	*
*M3/8	*M3/8	*	*M3/8	*
=1-	=1-	=1-	=1-	=1-
!	!	!	!LO:TX:b:B:rj:t=E.308	!
.	8qa/	.	.	.
!	!	!LO:DY:b=2:rj	!	!
4AAA\ 4AA\	8ff#\L 8aa\	f	8aa\	Ku-
.	8ff#\'>J 8aa\	.	8aa\	-ka-
!	!	!LO:DY:b=2:rj	!	!
8AA\ 8A\	16ee\LL 16gg#X\	sf	(>16gg#X\LL	-ła
.	16dd\JJ 16ff#\	.	16ff#\JJ)	.
=2	=2	=2	=2	=2
4AA'</	(>16dd\LL 16ff#\	.	(>16ff#\LL	za-
.	16cc#\JJ) 16ee\	.	16ee\JJ)	.
.	8cc#\L 8ee\	.	8ee\	-zu-
!	!	!LO:DY:b=2:rj	!	!
8AA'</ 8A/	8cc#\J 8ee\	sf	8ee\	-la
!!LO:LB:g=original
=3	=3	=3	=3	=3
4AAA/ 4AA/	8dd\L 8ff#\	.	8ff#\	od
.	(>8dd\J 8ff#\	.	(>8ff#\	ka-
8AA\ 8A\	16cc#LL) 16ee	.	16ee\)	.
.	16b'>\JJ 16dd\	.	16dd\'>	-ły-
=4	=4	=4	=4	=4
4AA/	(>\16bLL 16dd\	.	(>16dd\LL	-nocz-
.	16a\JJ) 16cc#\	.	16cc#\JJ)	.
.	4a\ 4cc#\	.	4cc#\	-ki,
8AA/ 8A/	.	.	.	.
=5||	=5||	=5||	=5||	=5||
*	*^	*	*	*
!!mixed beam:problem
!LO:TX:t=P:problem:mixed beam:problem	!	!	!LO:DY:b=2:rj	!	!
(>/16EELL	(<16ee/LL	8b^<\L	f	(>16ee\LL	ji-
16C#\)	16ff#/JJ)	.	.	16ff#\JJ)	.
(>16G#X^<\ 16B\	8dd^<L\	8dd	.	8dd\	-cha-
16E\)	.	.	.	.	.
(>16G#^<\ 16B\	8dd/J	(>16g#L\	.	8dd\	-ły
16E\JJ)	.	16g#XJJ)\	.	.	.
!!LO:LB:g=original
=6	=6	=6	=6	=6	=6
(>\16ALL 16c#\	8cc#/L	8a\L	.	8cc#\	żow-
16E\)	.	.	.	.	.
(>\16A 16c#\	8cc#/	8a\	.	8cc#\	-ni-
16E\)	.	.	.	.	.
(>\16A 16c#\	8ee/J	8cc#\J	.	8ee\	-ry
16E\JJ)	.	.	.	.	.
=7	=7	=7	=7	=7	=7
!!mixed beam:problem
!LO:TX:t=P:problem:mixed beam	!	!	!	!	!
16EE/LL	16ee/LL	8b\L	.	(>16ee\LL	z U-
16E\JJ	16ff#/JJ	.	.	16ff#\JJ)	.
(>\16G#XLL 16B\	8ddL/	8dd\	.	8.dd\	-kra-
16E\)	.	.	.	.	.
(>\16G# 16B\	16dd/L	16bL	.	.	.
16E\JJ)	16ee/JJ	16g#XJJ	.	16ee\	-ji-
=8	=8	=8	=8	=8	=8
!!mixed beam:problem
!LO:TX:t=P:problem:mixed beam	!	!	!	!	!
8AA/L	16dd/LL	16b\LL	.	16dd\LL	-noc-
.	16cc#/JJ	16a\JJ	.	16cc#\JJ	.
!	!	!	!	!LO:N:vis=4	!
8A\J	8cc#/	8a\	.	8cc#\	-ki.
8r	8r	8ryy	.	8r	.
*	*v	*v	*	*	*
==	==	==	==	==
*-	*-	*-	*-	*-
!!!system-decoration: g1,[{g2}]
!!!EED: Jędrzej Mróz
!!!ESR: 2021-11-12
!!!RDF**kern: > = above
!!!RDF**kern: < = below
